symbols/web/filter_3/materialsymbolsrounded/filter_3_gradN25fill1_24px.svg

<svg xmlns="http://www.w3.org/2000/svg" height="24" width="24"><path d="M12.025 15H15q.775 0 1.325-.55.55-.55.55-1.325V11.55q0-.625-.4-1.038-.4-.412-1.025-.412.625 0 1.025-.4.4-.4.4-1.05V7.125q0-.775-.55-1.325-.55-.55-1.325-.55h-3q-.4 0-.662.275-.263.275-.263.65 0 .4.275.675t.675.275H15v2.05h-1.05q-.4 0-.662.275-.263.275-.263.675 0 .375.275.65t.675.275H15v2.075h-3q-.4 0-.662.275-.263.275-.263.65 0 .4.275.675t.675.275Zm-4.15 3q-.775 0-1.325-.55Q6 16.9 6 16.125v-12q0-.775.55-1.325.55-.55 1.325-.55h12q.775 0 1.325.55.55.55.55 1.325v12q0 .775-.55 1.325-.55.55-1.325.55Zm-3.75 3.75q-.775 0-1.325-.55-.55-.55-.55-1.325V6.9q0-.375.275-.638Q2.8 6 3.2 6q.375 0 .65.275t.275.65v12.95H17.1q.375 0 .638.275.262.275.262.65 0 .4-.275.675t-.65.275Z"/></svg>

<svg xmlns="http://www.w3.org/2000/svg" height="24" width="24"><path d="M12.025 15H15Q15.775 15 16.325 14.45Q16.875 13.9 16.875 13.125V11.55Q16.875 10.925 16.475 10.512Q16.075 10.1 15.45 10.1Q16.075 10.1 16.475 9.7Q16.875 9.3 16.875 8.65V7.125Q16.875 6.35 16.325 5.8Q15.775 5.25 15 5.25H12Q11.6 5.25 11.338 5.525Q11.075 5.8 11.075 6.175Q11.075 6.575 11.35 6.85Q11.625 7.125 12.025 7.125H15Q15 7.125 15 7.125Q15 7.125 15 7.125V9.175Q15 9.175 15 9.175Q15 9.175 15 9.175H13.95Q13.55 9.175 13.288 9.45Q13.025 9.725 13.025 10.125Q13.025 10.5 13.3 10.775Q13.575 11.05 13.975 11.05H15Q15 11.05 15 11.05Q15 11.05 15 11.05V13.125Q15 13.125 15 13.125Q15 13.125 15 13.125H12Q11.6 13.125 11.338 13.4Q11.075 13.675 11.075 14.05Q11.075 14.45 11.35 14.725Q11.625 15 12.025 15ZM7.875 18Q7.1 18 6.55 17.45Q6 16.9 6 16.125V4.125Q6 3.35 6.55 2.8Q7.1 2.25 7.875 2.25H19.875Q20.65 2.25 21.2 2.8Q21.75 3.35 21.75 4.125V16.125Q21.75 16.9 21.2 17.45Q20.65 18 19.875 18ZM4.125 21.75Q3.35 21.75 2.8 21.2Q2.25 20.65 2.25 19.875V6.9Q2.25 6.525 2.525 6.262Q2.8 6 3.2 6Q3.575 6 3.85 6.275Q4.125 6.55 4.125 6.925V19.875Q4.125 19.875 4.125 19.875Q4.125 19.875 4.125 19.875H17.1Q17.475 19.875 17.738 20.15Q18 20.425 18 20.8Q18 21.2 17.725 21.475Q17.45 21.75 17.075 21.75Z"/></svg>
